COLOR/categories 16/16/avatar-default.svg

<svg height="16" width="16" xmlns="http://www.w3.org/2000/svg"><circle cx="8" cy="8" fill="#1a7fd4" r="7.5"/><g fill="none" stroke="#fff" stroke-dashoffset="1" stroke-linejoin="round" stroke-width=".666667" transform="matrix(1.3333333 0 0 1.3333333 2.032397 2.414783)"><ellipse cx="4.456809" cy="2.855579" rx="1.231061" ry="1.333333" stroke-linecap="round"/><path d="m1.9757034 6.8555792c-.028-1.130474.6250003-1.6666676 2.5000014-1.6666676 1.875001 0 2.528008.4941936 2.5000013 1.6666676z"/></g><path d="m8 .5a7.5 7.5 0 0 0 -7.5 7.5 7.5 7.5 0 0 0 .00976562.2871094 7.5 7.5 0 0 1 7.49023438-7.2871094 7.5 7.5 0 0 1 7.490234 7.2128906 7.5 7.5 0 0 0 .009766-.2128906 7.5 7.5 0 0 0 -7.5-7.5z" fill="#fff" opacity=".3"/><path d="m15.490234 7.7128906a7.5 7.5 0 0 1 -7.490234 7.2871094 7.5 7.5 0 0 1 -7.49023438-7.2128906 7.5 7.5 0 0 0 -.00976562.2128906 7.5 7.5 0 0 0 7.5 7.5 7.5 7.5 0 0 0 7.5-7.5 7.5 7.5 0 0 0 -.009766-.2871094z" fill="#060606" opacity=".2"/></svg>

<?xml version="1.0" encoding="UTF-8" standalone="no"?>
<!-- Created with Inkscape (http://www.inkscape.org/) -->

<svg
   xmlns:dc="http://purl.org/dc/elements/1.1/"
   xmlns:cc="http://creativecommons.org/ns#"
   xmlns:rdf="http://www.w3.org/1999/02/22-rdf-syntax-ns#"
   xmlns:svg="http://www.w3.org/2000/svg"
   xmlns="http://www.w3.org/2000/svg"
   xmlns:xlink="http://www.w3.org/1999/xlink"
   xmlns:sodipodi="http://sodipodi.sourceforge.net/DTD/sodipodi-0.dtd"
   xmlns:inkscape="http://www.inkscape.org/namespaces/inkscape"
   version="1.1"
   width="16"
   height="16"
   id="svg3916"
   sodipodi:docname="username-copy.svg"
   inkscape:version="0.92.4 (5da689c313, 2019-01-14)">
  <metadata
     id="metadata44">
    <rdf:RDF>
      <cc:Work
         rdf:about="">
        <dc:format>image/svg+xml</dc:format>
        <dc:type
           rdf:resource="http://purl.org/dc/dcmitype/StillImage" />
        <dc:title />
      </cc:Work>
    </rdf:RDF>
  </metadata>
  <sodipodi:namedview
     pagecolor="#ffffff"
     bordercolor="#666666"
     borderopacity="1"
     objecttolerance="10"
     gridtolerance="10"
     guidetolerance="10"
     inkscape:pageopacity="0"
     inkscape:pageshadow="2"
     inkscape:window-width="1920"
     inkscape:window-height="1016"
     id="namedview42"
     showgrid="false"
     inkscape:zoom="55.933333"
     inkscape:cx="8"
     inkscape:cy="8"
     inkscape:window-x="0"
     inkscape:window-y="27"
     inkscape:window-maximized="1"
     inkscape:current-layer="svg3916" />
  <defs
     id="defs3918">
    <linearGradient
       x1="24.103895"
       y1="15.168831"
       x2="24.103895"
       y2="32.485161"
       id="linearGradient2536"
       xlink:href="#linearGradient3945"
       gradientUnits="userSpaceOnUse"
       gradientTransform="matrix(0.3280315,0,0,0.3257096,24.444958,-10.722212)" />
    <linearGradient
       id="linearGradient3945">
      <stop
         id="stop3947"
         style="stop-color:#ecf5b6;stop-opacity:1"
         offset="0" />
      <stop
         id="stop3949"
         style="stop-color:#9fba48;stop-opacity:1"
         offset="1" />
    </linearGradient>
    <linearGradient
       x1="18.03083"
       y1="16.407909"
       x2="20.054544"
       y2="24.627615"
       id="linearGradient2929"
       xlink:href="#linearGradient8265-821-176-38-919-66-249"
       gradientUnits="userSpaceOnUse"
       gradientTransform="matrix(0.2966887,0,0,0.3520695,1.8805021,2.118629)" />
    <linearGradient
       id="linearGradient8265-821-176-38-919-66-249">
      <stop
         id="stop2687"
         style="stop-color:#ffffff;stop-opacity:0.2"
         offset="0" />
      <stop
         id="stop2689"
         style="stop-color:#ffffff;stop-opacity:0"
         offset="1" />
    </linearGradient>
    <linearGradient
       x1="126.69791"
       y1="58.583481"
       x2="169.22964"
       y2="238.3999"
       id="linearGradient2932"
       xlink:href="#linearGradient2610"
       gradientUnits="userSpaceOnUse"
       gradientTransform="matrix(0.05489342,0.01385132,0.00257263,0.05248166,-0.71280094,-0.2674109)" />
    <linearGradient
       id="linearGradient2610">
      <stop
         id="stop2612"
         style="stop-color:#f0c178;stop-opacity:1"
         offset="0" />
      <stop
         id="stop2614"
         style="stop-color:#e18941;stop-opacity:1"
         offset="0.5" />
      <stop
         id="stop2616"
         style="stop-color:#ec4f18;stop-opacity:1"
         offset="1" />
    </linearGradient>
    <linearGradient
       x1="10.318256"
       y1="14.992862"
       x2="4.1760364"
       y2="4.0514131"
       id="linearGradient2934"
       xlink:href="#linearGradient2603"
       gradientUnits="userSpaceOnUse"
       gradientTransform="matrix(1.0083043,0,0,1.0006232,-8.2398292e-4,-0.0066209)" />
    <linearGradient
       id="linearGradient2603">
      <stop
         id="stop2605"
         style="stop-color:#bb2b12;stop-opacity:1"
         offset="0" />
      <stop
         id="stop2607"
         style="stop-color:#cd7233;stop-opacity:1"
         offset="1" />
    </linearGradient>
    <linearGradient
       x1="302.85715"
       y1="366.64789"
       x2="302.85715"
       y2="609.50507"
       id="linearGradient2915"
       xlink:href="#linearGradient5048"
       gradientUnits="userSpaceOnUse"
       gradientTransform="matrix(2.774389,0,0,1.969706,-1892.179,-872.8854)" />
    <linearGradient
       id="linearGradient5048">
      <stop
         id="stop5050"
         style="stop-color:#000000;stop-opacity:0"
         offset="0" />
      <stop
         id="stop5056"
         style="stop-color:#000000;stop-opacity:1"
         offset="0.5" />
      <stop
         id="stop5052"
         style="stop-color:#000000;stop-opacity:0"
         offset="1" />
    </linearGradient>
    <radialGradient
       cx="605.71429"
       cy="486.64789"
       r="117.14286"
       fx="605.71429"
       fy="486.64789"
       id="radialGradient2917"
       xlink:href="#linearGradient5060"
       gradientUnits="userSpaceOnUse"
       gradientTransform="matrix(2.774389,0,0,1.969706,-1891.633,-872.8854)" />
    <linearGradient
       id="linearGradient5060">
      <stop
         id="stop5062"
         style="stop-color:#000000;stop-opacity:1"
         offset="0" />
      <stop
         id="stop5064"
         style="stop-color:#000000;stop-opacity:0"
         offset="1" />
    </linearGradient>
    <radialGradient
       cx="605.71429"
       cy="486.64789"
       r="117.14286"
       fx="605.71429"
       fy="486.64789"
       id="radialGradient2919"
       xlink:href="#linearGradient5060"
       gradientUnits="userSpaceOnUse"
       gradientTransform="matrix(-2.774389,0,0,1.969706,112.7623,-872.8854)" />
    <clipPath
       clipPathUnits="userSpaceOnUse"
       id="clipPath983">
      <path
         sodipodi:nodetypes="scccssscsss"
         inkscape:connector-curvature="0"
         id="path985"
         d="m 325.09646,237 c -2.80769,0 -3.10979,0.28839 -3.09603,3.10176 V 244 v 3.89824 c -0.0138,2.81337 0.28834,3.10176 3.09603,3.10176 h 5.8075 C 333.71166,251 334,250.71165 334,247.89824 V 244 240.10176 C 334,237.28836 333.71165,237 330.90396,237 Z"
         style="color:#000000;display:inline;overflow:visible;visibility:visible;opacity:1;fill:#46a926;fill-opacity:1;fill-rule:nonzero;stroke:none;stroke-width:2;stroke-miterlimit:4;stroke-dasharray:none;stroke-opacity:1;marker:none;enable-background:accumulate" />
    </clipPath>
    <clipPath
       clipPathUnits="userSpaceOnUse"
       id="clipPath983-3">
      <path
         sodipodi:nodetypes="scccssscsss"
         inkscape:connector-curvature="0"
         id="path985-6"
         d="m 325.09646,237 c -2.80769,0 -3.10979,0.28839 -3.09603,3.10176 V 244 v 3.89824 c -0.0138,2.81337 0.28834,3.10176 3.09603,3.10176 h 5.8075 C 333.71166,251 334,250.71165 334,247.89824 V 244 240.10176 C 334,237.28836 333.71165,237 330.90396,237 Z"
         style="color:#000000;display:inline;overflow:visible;visibility:visible;opacity:1;fill:#46a926;fill-opacity:1;fill-rule:nonzero;stroke:none;stroke-width:2;stroke-miterlimit:4;stroke-dasharray:none;stroke-opacity:1;marker:none;enable-background:accumulate" />
    </clipPath>
    <clipPath
       clipPathUnits="userSpaceOnUse"
       id="clipPath1237">
      <path
         style="opacity:1;fill:url(#linearGradient1241);fill-opacity:1;stroke:none;stroke-width:2;stroke-linecap:round;stroke-linejoin:round;stroke-miterlimit:4;stroke-dasharray:none;stroke-dashoffset:0;stroke-opacity:1"
         d="M 351.93164,62.5 C 365.55326,62.5 367.5,64.44187 367.5,78.05078 V 89.94922 C 367.5,103.55808 365.55326,105.5 351.93164,105.5 H 336.06836 C 322.44674,105.5 320.5,103.55808 320.5,89.94922 V 78.05078 C 320.5,64.44187 322.44674,62.5 336.06836,62.5 Z"
         id="path1239"
         inkscape:connector-curvature="0"
         sodipodi:nodetypes="sssssssss" />
    </clipPath>
  </defs>
  <circle
     style="display:inline;opacity:1;fill:#1a7fd4;fill-opacity:1;stroke:none;stroke-width:0.62313455;stroke-linecap:round;stroke-linejoin:round;stroke-miterlimit:4;stroke-dasharray:none;stroke-opacity:1;enable-background:new"
     id="path9498-6"
     cx="8"
     cy="8"
     r="7.5" />
  <g
     id="g884"
     transform="matrix(1.3333333,0,0,1.3333333,2.0323966,2.4147833)">
    <ellipse
       style="display:inline;opacity:1;fill:none;fill-opacity:1;stroke:#ffffff;stroke-width:0.66666704;stroke-linecap:round;stroke-linejoin:round;stroke-miterlimit:4;stroke-dasharray:none;stroke-dashoffset:1;stroke-opacity:1;enable-background:new"
       id="ellipse1029"
       cx="4.456809"
       cy="2.8555794"
       rx="1.2310609"
       ry="1.3333334" />
    <path
       style="display:inline;opacity:1;fill:none;fill-opacity:1;stroke:#ffffff;stroke-width:0.66666704;stroke-linecap:butt;stroke-linejoin:round;stroke-miterlimit:4;stroke-dasharray:none;stroke-dashoffset:1;stroke-opacity:1;enable-background:new"
       d="m 1.9757034,6.8555792 c -0.028,-1.130474 0.6250003,-1.6666676 2.5000014,-1.6666676 1.875001,0 2.528008,0.4941936 2.5000013,1.6666676 z"
       id="path1031"
       inkscape:connector-curvature="0"
       sodipodi:nodetypes="cscc" />
  </g>
  <path
     style="display:inline;opacity:0.3;fill:#ffffff;fill-opacity:1;stroke:none;stroke-width:0.62313455;stroke-linecap:round;stroke-linejoin:round;stroke-miterlimit:4;stroke-dasharray:none;stroke-opacity:1;enable-background:new"
     d="M 8 0.5 A 7.5 7.5 0 0 0 0.5 8 A 7.5 7.5 0 0 0 0.50976562 8.2871094 A 7.5 7.5 0 0 1 8 1 A 7.5 7.5 0 0 1 15.490234 8.2128906 A 7.5 7.5 0 0 0 15.5 8 A 7.5 7.5 0 0 0 8 0.5 z "
     id="circle868" />
  <path
     style="display:inline;opacity:0.2;fill:#060606;fill-opacity:1;stroke:none;stroke-width:0.62313455;stroke-linecap:round;stroke-linejoin:round;stroke-miterlimit:4;stroke-dasharray:none;stroke-opacity:1;enable-background:new"
     d="M 15.490234 7.7128906 A 7.5 7.5 0 0 1 8 15 A 7.5 7.5 0 0 1 0.50976562 7.7871094 A 7.5 7.5 0 0 0 0.5 8 A 7.5 7.5 0 0 0 8 15.5 A 7.5 7.5 0 0 0 15.5 8 A 7.5 7.5 0 0 0 15.490234 7.7128906 z "
     id="circle873" />
</svg>
